X:440
T:a Rigadoon
A:Wyresdale, Lancashire
B:E and J Winder, 1835-41
L:1/8
M:C|
O:England
Z:Richard Robinson 
%%TUNEURL: http://www.leeds.ac.uk/music/Info/RRTuneBk/gettune/00000ecd.html
%%ID:00000ecd
K:G min
GABc d2G2 | d2g2 ^f2d2 | g2a2 b2ag | a2^f2 g2G2 ::
def2 f2b2 | f2d2 B4 | ABc2 c2f2 | (ed)(cB) A2d2 |\
(cB)(AG) A2^F2 | G6 ::
